X:5200
T:Polska eller hambo efter Verner Röstberg 1
O:england
C:I Hambotagen
M:3/4
L:1/8
K:G
G>d B2 B2|B>d d2 d2|d^c/d/ ed =cB|BA A2 A2|\
F>A A2 A2|A>c c2 c2|cB/c/ dc BA|AG GB d2|
G>d B2 B2|B>d d2 d2|d^c/d/ ed =cB|BA A2 A2|\
F>A A2 A2|A>c c2 c2|cB/c/ dc BA|G6:|
|:d^c/d/ ed =cB|BA AD FA|cB/c/ dc BA|GG GB d2|
d^c/d/ ed =cB|BA AD FA|cB/c/ dc BA|G6:|


